img/request.svg

<svg width="24" height="24" viewBox="0 0 24 24" fill="none" xmlns="http://www.w3.org/2000/svg">
<path fill-rule="evenodd" clip-rule="evenodd" d="M12 2C12.5523 2 13 2.44772 13 3V12.5858L16.2929 9.29289C16.6834 8.90237 17.3166 8.90237 17.7071 9.29289C18.0976 9.68342 18.0976 10.3166 17.7071 10.7071L12.7071 15.7071C12.3166 16.0976 11.6834 16.0976 11.2929 15.7071L6.29289 10.7071C5.90237 10.3166 5.90237 9.68342 6.29289 9.29289C6.68342 8.90237 7.31658 8.90237 7.70711 9.29289L11 12.5858V3C11 2.44772 11.4477 2 12 2ZM3 12C3.55228 12 4 12.4477 4 13V17C4 18.6569 5.34315 20 7 20H17C18.6569 20 20 18.6569 20 17V13C20 12.4477 20.4477 12 21 12C21.5523 12 22 12.4477 22 13V17C22 19.7614 19.7614 22 17 22H7C4.23858 22 2 19.7614 2 17V13C2 12.4477 2.44772 12 3 12Z" fill="black" fill-opacity="0.2"/>
</svg>

<svg width="24" height="24" fill="none" xmlns="http://www.w3.org/2000/svg"><path fill-rule="evenodd" clip-rule="evenodd" d="M12 2a1 1 0 011 1v9.586l3.293-3.293a1 1 0 111.414 1.414l-5 5a1 1 0 01-1.414 0l-5-5a1 1 0 011.414-1.414L11 12.586V3a1 1 0 011-1zM3 12a1 1 0 011 1v4a3 3 0 003 3h10a3 3 0 003-3v-4a1 1 0 112 0v4a5 5 0 01-5 5H7a5 5 0 01-5-5v-4a1 1 0 011-1z" fill="#000" fill-opacity=".2"/></svg>
